X:117 
T:Maid of the Glen (reel), The 
S:Bogue MS
F:file ID: cre.4/117maid_g
B:CRE4.169 (Ainnir an Ghleanna)
L:1/8
Q:180
M:4/4
R:reel
K:D
A2Bc d2cB|ABAG FEEF|A2Bc d2ce|fbba fee2:|
adfd addb|adfd bafb|adfd a2 fa|fbba fe e2|
adfd addb|adfd bafb|bgaf gefd|fbba fe e2 ||

%%%


